build/svg/cmd/sc_duplicatepage.svg

<?xml version="1.0" encoding="UTF-8" standalone="no"?>
<svg
   xmlns:dc="http://purl.org/dc/elements/1.1/"
   xmlns:cc="http://creativecommons.org/ns#"
   xmlns:rdf="http://www.w3.org/1999/02/22-rdf-syntax-ns#"
   xmlns:svg="http://www.w3.org/2000/svg"
   xmlns="http://www.w3.org/2000/svg"
   xmlns:sodipodi="http://sodipodi.sourceforge.net/DTD/sodipodi-0.dtd"
   xmlns:inkscape="http://www.inkscape.org/namespaces/inkscape"
   viewBox="0 0 16 16"
   version="1.1"
   id="svg4"
   sodipodi:docname="sc_duplicatepage.svg"
   inkscape:version="0.92.5 (2060ec1f9f, 2020-04-08)"
   inkscape:export-filename="/home/jupiter007/Libreoffice yaru theme fullcolor/build/cmd/sc_duplicatepage.png"
   inkscape:export-xdpi="96"
   inkscape:export-ydpi="96"><metadata
   id="metadata10">
  <rdf:RDF>
    <cc:Work
       rdf:about="">
      <dc:format>image/svg+xml</dc:format>
      <dc:type
         rdf:resource="http://purl.org/dc/dcmitype/StillImage" />
    </cc:Work>
  </rdf:RDF>
</metadata>
<defs
   id="defs8" />
<sodipodi:namedview
   pagecolor="#ffffff"
   bordercolor="#666666"
   borderopacity="1"
   objecttolerance="10"
   gridtolerance="10"
   guidetolerance="10"
   inkscape:pageopacity="0"
   inkscape:pageshadow="2"
   inkscape:window-width="1920"
   inkscape:window-height="1011"
   id="namedview6"
   showgrid="true"
   inkscape:zoom="29.5"
   inkscape:cx="6.6295727"
   inkscape:cy="6.1779036"
   inkscape:window-x="0"
   inkscape:window-y="32"
   inkscape:window-maximized="1"
   inkscape:current-layer="svg4">
  <inkscape:grid
     type="xygrid"
     id="grid823" />
</sodipodi:namedview>

/&gt;<path
   sodipodi:nodetypes="cccscsccccccccscscccccc"
   inkscape:connector-curvature="0"
   id="path4237-1"
   d="M 6.9941409,5.0000001 C 5.7359409,5.0145001 4.81525,4.9694001 4.0625,5.3847661 3.68613,5.592426 3.389269,5.944152 3.2246089,6.382812 3.059939,6.821482 3,7.3424 3,8.0000001 V 9.488281 12 c 0,0.657609 0.0599,1.178577 0.2246089,1.617189 C 3.389289,14.055799 3.68614,14.405712 4.0625,14.613281 4.81522,15.028412 5.736041,14.984931 6.9941409,15 h 0.002 4.0048571 0.0039 c 1.25819,-0.0145 2.178891,0.0306 2.931641,-0.384766 0.37637,-0.20766 0.673221,-0.559386 0.837891,-0.998045 C 14.938969,13.178518 14.999048,12.657609 14.999048,12 V 9.466797 8.0000001 c 0,-0.6576001 -0.0599,-1.1785771 -0.224609,-1.6171881 -0.16468,-0.438599 -0.461531,-0.788533 -0.837891,-0.9960929 -0.75277,-0.41513 -1.673601,-0.371639 -2.931691,-0.386719 h -0.002 -4.0048571 z"
   style="font-style:normal;font-variant:normal;font-weight:normal;font-stretch:normal;font-size:15px;line-height:125%;font-family:Ubuntu;-inkscape-font-specification:Ubuntu;text-align:center;letter-spacing:0px;word-spacing:0px;writing-mode:lr-tb;text-anchor:middle;display:inline;opacity:0.6;fill:#000000;fill-opacity:1;stroke:none;stroke-width:0.99980211" />
<path
   inkscape:connector-curvature="0"
   id="path1993"
   d="m 7.9823689,6.027185 c -1.556581,0.0108 -1.10899,-0.01175 -2.658941,0.03877 -0.461229,0.04267 -1.016188,0.206419 -1.15534,0.709967 -0.218994,0.635346 -0.108414,1.3337871 -0.145796,1.9819241 -0.0078,2.2970839 -0.02297,1.5958459 0.02152,3.8851969 0.0391,0.461929 0.202551,1.012665 0.698756,1.163665 0.632456,0.225083 1.284144,0.12274 1.935974,0.154299 1.4242358,0.0068 0.849563,0.01102 2.2754208,0.01131 1.7045313,3.49e-4 1.4083873,-0.005 3.1071873,-0.01851 0.511911,-0.01201 1.183699,0.01993 1.584745,-0.405192 0.421097,-0.539783 0.287073,-1.268021 0.322745,-1.903787 C 13.98051,9.200506 13.99633,9.734316 13.94674,7.288617 13.89746,6.886577 13.776748,6.425665 13.371601,6.244142 12.703432,5.950045 11.945396,6.076123 11.24568,6.03857 9.4912757,6.02677 9.7368087,6.02608 7.982369,6.02718 Z"
   style="opacity:1;vector-effect:none;fill:#ffffff;fill-opacity:1;stroke:none;stroke-width:1;stroke-linecap:round;stroke-linejoin:bevel;stroke-miterlimit:4;stroke-dasharray:none;stroke-dashoffset:0;stroke-opacity:1"
   sodipodi:nodetypes="cccccccscccccccc" />
<path
   style="font-style:normal;font-variant:normal;font-weight:normal;font-stretch:normal;font-size:15px;line-height:125%;font-family:Ubuntu;-inkscape-font-specification:Ubuntu;text-align:center;letter-spacing:0px;word-spacing:0px;writing-mode:lr-tb;text-anchor:middle;display:inline;opacity:0.6;fill:#000000;fill-opacity:1;stroke:none;stroke-width:0.99980211"
   d="M 4.9941409,1.0000001 C 3.7359409,1.0145001 2.81525,0.9694001 2.0625,1.3847661 1.68613,1.592426 1.389269,1.944152 1.2246089,2.382812 1.059939,2.821482 1,3.3424 1,4.0000001 V 5.488281 8 C 1,8.657609 1.0599,9.178577 1.2246089,9.617189 1.389289,10.055799 1.68614,10.405712 2.0625,10.613281 2.81522,11.028412 3.736041,10.984931 4.9941409,11 h 0.002 4.0048568 0.0039 c 1.2581903,-0.0145 2.1788913,0.0306 2.9316413,-0.384766 0.37637,-0.20766 0.673221,-0.559386 0.837891,-0.998045 C 12.938969,9.178518 12.999048,8.657609 12.999048,8 V 5.466797 4.0000001 c 0,-0.6576001 -0.0599,-1.1785771 -0.224609,-1.6171881 -0.16468,-0.438599 -0.461531,-0.788533 -0.837891,-0.9960929 -0.75277,-0.41513 -1.673601,-0.371639 -2.9316913,-0.386719 h -0.002 -4.0048568 z"
   id="path824"
   inkscape:connector-curvature="0"
   sodipodi:nodetypes="cccscsccccccccscscccccc" />
<path
   sodipodi:nodetypes="cccccccscccccccc"
   style="opacity:1;vector-effect:none;fill:#ffffff;fill-opacity:1;stroke:none;stroke-width:1;stroke-linecap:round;stroke-linejoin:bevel;stroke-miterlimit:4;stroke-dasharray:none;stroke-dashoffset:0;stroke-opacity:1"
   d="m 5.9823689,2.027185 c -1.556581,0.0108 -1.10899,-0.01175 -2.658941,0.03877 -0.461229,0.04267 -1.016188,0.206419 -1.15534,0.709967 -0.218994,0.635346 -0.108414,1.3337871 -0.145796,1.9819241 -0.0078,2.2970839 -0.02297,1.5958459 0.02152,3.8851969 0.0391,0.461929 0.202551,1.012665 0.698756,1.163665 0.632456,0.225083 1.284144,0.12274 1.935974,0.154299 1.4242358,0.0068 0.849563,0.01102 2.2754208,0.01131 1.704531,3.49e-4 1.408387,-0.005 3.1071873,-0.01851 0.511911,-0.01201 1.183699,0.01993 1.584745,-0.405192 C 12.066992,9.008832 11.932968,8.280594 11.96864,7.644828 11.98051,5.200506 11.99633,5.734316 11.94674,3.288617 11.89746,2.886577 11.776748,2.425665 11.371601,2.244142 10.703432,1.950045 9.9453957,2.076123 9.2456797,2.03857 7.4912757,2.02677 7.7368087,2.02608 5.982369,2.02718 Z"
   id="path826"
   inkscape:connector-curvature="0" />
</svg>

<svg xmlns="http://www.w3.org/2000/svg" viewBox="0 0 16 16">/&gt;<path d="M6.994 5c-1.258.015-2.179-.03-2.931.385a1.88 1.88 0 00-.838.998C3.06 6.82 3 7.343 3 8v4c0 .658.06 1.179.225 1.617.164.439.461.789.837.996.753.415 1.674.372 2.932.387H11.005c1.258-.015 2.179.03 2.932-.385a1.88 1.88 0 00.837-.998c.165-.438.225-.96.225-1.617V8c0-.658-.06-1.179-.225-1.617a1.875 1.875 0 00-.837-.996c-.753-.415-1.674-.372-2.932-.387H6.998z" style="line-height:125%;-inkscape-font-specification:Ubuntu;text-align:center" font-weight="400" font-size="15" font-family="Ubuntu" letter-spacing="0" word-spacing="0" text-anchor="middle" opacity=".6"/><path d="M7.982 6.027c-1.556.011-1.109-.012-2.659.039-.46.043-1.016.206-1.155.71-.219.635-.108 1.334-.146 1.982-.008 2.297-.023 1.596.022 3.885.039.462.202 1.013.699 1.164.632.225 1.284.122 1.936.154 1.424.007.85.011 2.275.011 1.704 0 1.408-.005 3.107-.018.512-.012 1.184.02 1.585-.405.421-.54.287-1.268.323-1.904.012-2.444.027-1.91-.022-4.356-.05-.402-.17-.863-.575-1.045-.669-.294-1.427-.168-2.126-.205-1.755-.012-1.51-.013-3.264-.012z" fill="#fff"/><path style="line-height:125%;-inkscape-font-specification:Ubuntu;text-align:center" d="M4.994 1c-1.258.015-2.179-.03-2.931.385a1.88 1.88 0 00-.838.998C1.06 2.82 1 3.343 1 4v4c0 .658.06 1.179.225 1.617.164.439.461.789.837.996.753.415 1.674.372 2.932.387H9.005c1.258-.015 2.179.03 2.932-.385a1.88 1.88 0 00.837-.998C12.94 9.18 13 8.657 13 8V4c0-.658-.06-1.179-.225-1.617a1.875 1.875 0 00-.837-.996C11.184.972 10.263 1.015 9.005 1H4.998z" font-weight="400" font-size="15" font-family="Ubuntu" letter-spacing="0" word-spacing="0" text-anchor="middle" opacity=".6"/><path d="M5.982 2.027c-1.556.011-1.109-.012-2.659.039-.46.043-1.016.206-1.155.71-.219.635-.108 1.334-.146 1.982-.008 2.297-.023 1.596.022 3.885.039.462.202 1.013.699 1.164.632.225 1.284.122 1.936.154 1.424.007.85.011 2.275.011 1.704 0 1.408-.005 3.107-.018.512-.012 1.184.02 1.585-.405.421-.54.287-1.268.323-1.904.012-2.444.027-1.91-.022-4.356-.05-.402-.17-.863-.575-1.045-.669-.294-1.427-.168-2.126-.205-1.755-.012-1.51-.013-3.264-.012z" fill="#fff"/></svg>
